Obsidian/actions/22s/fcitx-chttrans-inactive.svg

<svg height="22" width="22" xmlns="http://www.w3.org/2000/svg"><path d="m2 0c-1.108 0-2 .892-2 2v12c0 1.108.892 2 2 2h12c1.108 0 2-.892 2-2v-12c0-1.108-.892-2-2-2zm4 2h7c-.228 3.0343-1.036 5.674-2.439 7.8359 1.024 1.2901 2.37 2.4091 4.039 3.3571l-.569 1.08c-1.631-.872-3.014-1.99-4.1521-3.355-1.0999 1.365-2.5041 2.483-4.2109 3.355l-.6836-1.023c1.7447-.872 3.1115-1.992 4.0976-3.3574-1.2516-1.8585-2.1241-4.2376-2.6171-6.8926h-.4649zm-3.6484.377c.8458.4613 1.6146 1.0202 2.3066 1.6738l-.75.9804c-.7689-.7304-1.5578-1.3458-2.3652-1.8457zm5.25.623c.4551 2.2757 1.1946 4.3141 2.2187 5.8691 1.0237-1.8205 1.6697-3.8589 1.9357-5.8691zm-5.8262 2.6523c.7689.423 1.4792.9032 2.1328 1.4414l-.8066.9805c-.6536-.6536-1.3659-1.1923-2.1348-1.6152zm1.3262 3.334.9804.6934c-.4613 1.8073-1.1352 3.5563-2.0195 5.2483l-1.15234-.809c.92274-1.615 1.65314-3.326 2.19144-5.1327z" fill="#bebebe" transform="translate(3 3)"/></svg>

<svg xmlns="http://www.w3.org/2000/svg" width="22" height="22" version="1.1">
 <defs>
  <style id="current-color-scheme" type="text/css">
   .ColorScheme-Text { color:#bebebe; } .ColorScheme-Highlight { color:#4285f4; }
  </style>
 </defs>
 <g transform="matrix(1,0,0,1,3,3)">
  <path class="ColorScheme-Text" d="M 2,0 C 0.892,0 0,0.892 0,2 V 14 C 0,15.108 0.892,16 2,16 H 14 C 15.108,16 16,15.108 16,14 V 2 C 16,0.892 15.108,0 14,0 Z M 6,2 H 13 C 12.772,5.0343 11.964,7.674 10.561,9.8359 11.585,11.126 12.931,12.245 14.6,13.193 L 14.031,14.273 C 12.4,13.401 11.017,12.283 9.8789,10.918 8.779,12.283 7.3748,13.401 5.668,14.273 L 4.9844,13.25 C 6.7291,12.378 8.0959,11.258 9.082,9.8926 7.8304,8.0341 6.9579,5.655 6.4649,3 H 6 Z M 2.3516,2.377 C 3.1974,2.8383 3.9662,3.3972 4.6582,4.0508 L 3.9082,5.0312 C 3.1393,4.3008 2.3504,3.6854 1.543,3.1855 Z M 7.6016,3 C 8.0567,5.2757 8.7962,7.3141 9.8203,8.8691 10.844,7.0486 11.49,5.0102 11.756,3 Z M 1.7754,5.6523 C 2.5443,6.0753 3.2546,6.5555 3.9082,7.0937 L 3.1016,8.0742 C 2.448,7.4206 1.7357,6.8819 0.9668,6.459 Z M 3.1016,8.9863 4.082,9.6797 C 3.6207,11.487 2.9468,13.236 2.0625,14.928 L 0.91016,14.119 C 1.8329,12.504 2.5633,10.793 3.1016,8.9863 Z" style="fill:currentColor"/>
 </g>
</svg>
